X: 4166
T: PADDY ON THE TURNPIKE
%R: reel
B: James Kerr "Merry Melodies" v.4 p.19 #166
Z: 2016 John Chambers <jc:trillian.mit.edu>
M: C|
L: 1/8
K: D
|:\
F2FE G2GE | F2FG (EG)BG |\
F2FE G2GE |[1 EGBG F2(BG) :|[2 EGBG F2(fd) |:\
(ec)(cB) (ec)(Bd) | (ec)(cB) e2(fd) |\
(ec)(cB) (ec)(Bd) |[1 ecBG F2(Fd) :|[2 ceBG FAGE |]

%%sep 1 1 500
%%sep 1 1 500

